startshape begin

rule begin {
	arcImpl {}
}

rule multiArcs {
	arc {}
	arc { r 20}
}

rule arc {
	arcImpl {x +19 y -9}
}

rule arcImpl {
	PRIMITIVE {}
	arc {y+0.5 r 1.3 s 0.99}	
}

rule PRIMITIVE {
	SQUARE {}
}