startshape mix
rule mix { 
	FOURPIXELS { }
	mix {r 2 s 0.9}
}


rule FOURPIXELS  {
	PRIMITIVE { x 0 }
	PRIMITIVE { x 1 }
	PRIMITIVE { y 1 }
	PRIMITIVE { x 1 y 1 }
}

rule PRIMITIVE {
	SQUARE {}
}

rule PRIMITIVE {
	CIRCLE {}
}