startshape begin

rule begin {
	mix {r 27}
	mix {}
	mix {r 180}
	mix {r 270}
}

rule mix { 
	FOURPIXELS { }
	mix {r -45 x+2 s 0.9}
}

rule mix { 
	FOURPIXELS { }
	mix {r 45 x+2 s 0.9}
}

rule FOURPIXELS 0.02 {
	begin {x+20 s 10.0}
}

rule FOURPIXELS  {
	PRIMITIVE { x 0 }
	PRIMITIVE { x 1 }
	PRIMITIVE { y 1 }
	PRIMITIVE { x 1 y 1 }
}

rule PRIMITIVE {
	SQUARE {}
}

rule PRIMITIVE {
	CIRCLE {}
}